X: 41734
T: Valse Bruno
R: waltz
M: 3/4
K: Eminor
|:"Em"B4B2|"C"c4B2|"A"A4B2|"Em"G2E4|"C"E2G2E2|"D"F4F2|1 "D" F2A2d2|"B"B6:|2 "D" F2A2F2|"Em"E6||
|:"C"ecAecA|"C"ecAecA|"Em"BGEBGE|"Em"BGEBGE|
"D"AFDAFD|"D"AFDAFD|1 "Em"BGEBGE|"Em"BGEBGE:|2 "C"G4F2|"Em"E6||

